svgs/light/light-emergency-on.svg

<svg xmlns="http://www.w3.org/2000/svg" viewBox="0 0 640 512"><!--! Font Awesome Pro 6.3.0 by @fontawesome - https://fontawesome.com License - https://fontawesome.com/license (Commercial License) Copyright 2023 Fonticons, Inc. --><path d="M535 94.3L599 62.3C607 58.37 610.2 48.74 606.4 40.83C602.2 32.93 592.6 29.73 584.1 33.7L520.1 65.7C512.1 69.63 509.8 79.26 513.6 87.17C517.8 95.07 527.4 98.27 535 94.3zM176 320C184.1 320 192 312.8 192 304V192C192 121.3 249.3 64 320 64C390.7 64 448 121.3 448 192V304C448 312.8 455 320 464 320C472.1 320 480 312.8 480 304V192C480 103.6 408.3 32 320 32C231.7 32 160 103.6 160 192V304C160 312.8 167 320 176 320zM224 176C224 184.8 231 192 240 192C248.1 192 256 184.8 256 176C256 149.5 277.4 128 304 128C312.1 128 320 120.8 320 112C320 103.2 312.1 96 304 96C259.8 96 224 131.9 224 176zM80 192H16C7.039 192 0 199.2 0 208C0 216.8 7.039 224 16 224H80C88.96 224 96 216.8 96 208C96 199.2 88.96 192 80 192zM624 192H560C551 192 544 199.2 544 208C544 216.8 551 224 560 224H624C632.1 224 640 216.8 640 208C640 199.2 632.1 192 624 192zM40.96 62.3L104.1 94.3C112.6 98.27 122.2 95.07 126.4 87.17C130.2 79.26 127 69.63 119 65.7L55.04 33.7C47.36 29.73 37.76 32.93 33.6 40.83C29.76 48.74 32.96 58.37 40.96 62.3zM496 352H144C117.4 352 96 373.5 96 400V432C96 458.5 117.4 480 144 480H496C522.6 480 544 458.5 544 432V400C544 373.5 522.6 352 496 352zM512 432C512 440.8 504.1 448 496 448H144C135 448 128 440.8 128 432V400C128 391.2 135 384 144 384H496C504.1 384 512 391.2 512 400V432z"/></svg>

<svg xmlns="http://www.w3.org/2000/svg" viewBox="0 0 640 512"><!--! Font Awesome Pro 6.4.0 by @fontawesome - https://fontawesome.com License - https://fontawesome.com/license (Commercial License) Copyright 2023 Fonticons, Inc. --><path d="M55.2 33.7c-7.9-4-17.5-.7-21.5 7.2s-.7 17.5 7.2 21.5l64 32c7.9 4 17.5 .7 21.5-7.2s.7-17.5-7.2-21.5l-64-32zm544 28.6c7.9-4 11.1-13.6 7.2-21.5s-13.6-11.1-21.5-7.2l-64 32c-7.9 4-11.1 13.6-7.2 21.5s13.6 11.1 21.5 7.2l64-32zM16 192c-8.8 0-16 7.2-16 16s7.2 16 16 16H80c8.8 0 16-7.2 16-16s-7.2-16-16-16H16zm544 0c-8.8 0-16 7.2-16 16s7.2 16 16 16h64c8.8 0 16-7.2 16-16s-7.2-16-16-16H560zm-112 0V320h32V192c0-88.4-71.6-160-160-160s-160 71.6-160 160V320h32V192c0-70.7 57.3-128 128-128s128 57.3 128 128zM128 400c0-8.8 7.2-16 16-16H496c8.8 0 16 7.2 16 16v32c0 8.8-7.2 16-16 16H144c-8.8 0-16-7.2-16-16V400zm-32 0v32c0 26.5 21.5 48 48 48H496c26.5 0 48-21.5 48-48V400c0-26.5-21.5-48-48-48H144c-26.5 0-48 21.5-48 48zM320 128c8.8 0 16-7.2 16-16s-7.2-16-16-16c-53 0-96 43-96 96c0 8.8 7.2 16 16 16s16-7.2 16-16c0-35.3 28.7-64 64-64z"/></svg>
